static/assets/images/products/guard/guard-enterprise-icon.svg

<svg width="64" height="64" viewBox="0 0 64 64" fill="none" xmlns="http://www.w3.org/2000/svg">
<g clip-path="url(#clip0)">
<path d="M30.1118 0.317696L13.8411 8.1548C13.4054 8.36416 13.0224 8.66913 12.7209 9.04699C12.4193 9.42486 12.2069 9.86589 12.0994 10.3372L8.08118 27.9455C7.97322 28.4167 7.97294 28.9063 8.08034 29.3777C8.18774 29.8491 8.40007 30.2902 8.70153 30.6682L19.9618 44.7874C20.2632 45.1655 20.646 45.4709 21.0816 45.6808C21.5173 45.8907 21.9946 45.9998 22.4782 46H40.5384C41.022 46 41.4994 45.891 41.9351 45.6811C42.3708 45.4711 42.7535 45.1657 43.0548 44.7874L54.3151 30.6682C54.6159 30.2899 54.828 29.8488 54.9356 29.3776C55.0432 28.9063 55.0436 28.4169 54.9368 27.9455L50.9186 10.3372C50.8108 9.866 50.5983 9.42511 50.2968 9.04728C49.9952 8.66946 49.6125 8.36441 49.1769 8.1548L32.9048 0.317696C32.4689 0.10857 31.9917 0 31.5083 0C31.0249 0 30.5476 0.10857 30.1118 0.317696V0.317696Z" fill="#DBE1EE"/>
<path fill-rule="evenodd" clip-rule="evenodd" d="M19.4707 17.7954L21.8272 33.2339C22.0826 34.9307 23.371 36.3468 24.5092 37.6296C26.4264 39.8106 28.9934 41.3236 31.632 42.7917C31.7484 42.868 31.8849 42.9079 32.0241 42.9064C32.1633 42.9049 32.2989 42.862 32.4137 42.7832C35.034 41.2969 37.6066 39.8022 39.528 37.6296C40.662 36.3468 41.9448 34.9307 42.2087 33.2339L44.5652 17.7954C41.9813 17.218 39.3609 16.818 36.7224 16.5983C37.1359 17.0918 37.4902 17.6321 37.7779 18.2081C39.4826 18.384 41.1795 18.6389 42.8683 18.973L40.7238 33.0149C40.5217 34.3258 39.2543 35.6703 38.3926 36.6472C36.6691 38.5994 34.2776 40.0057 32.0095 41.2787C29.7415 40.0155 27.3583 38.598 25.6348 36.6472C24.7815 35.6647 23.5156 34.3258 23.3135 33.0149L21.1675 18.973C22.8517 18.6389 24.5457 18.384 26.2496 18.2081C26.5372 17.6297 26.8949 17.0891 27.3148 16.5983C24.6757 16.8166 22.0548 17.2166 19.4707 17.7954V17.7954Z" fill="#3CAD5C"/>
<path fill-rule="evenodd" clip-rule="evenodd" d="M34.0317 34.4661C32.7095 34.817 31.319 34.8199 29.9953 34.4746C29.7932 35.196 29.5911 35.9258 29.389 36.6472C27.6655 34.2374 27.1434 33.4542 24.7378 31.7055C25.2206 28.1616 25.1687 25.0838 24.7462 21.5582L25.0887 21.54C25.8451 18.3119 27.2697 15.3772 30.5146 14.6909C30.6929 14.9987 30.8546 15.3159 30.9988 15.6411C28.4725 16.072 26.9188 18.1674 26.2269 21.0923C27.6781 21.1358 29.163 20.688 30.6844 20.3091C29.0002 21.4965 27.5111 22.4143 25.8662 22.5084C26.1797 25.4142 26.1618 28.3462 25.8129 31.2479C27.1504 32.2304 27.7778 32.6809 28.9791 34.3525C29.577 32.2234 30.3237 29.0192 30.0781 26.5701L27.3792 25.3069L27.5546 23.6368L26.9216 22.907L30.6325 24.4508L31.1602 24.1968L31.0198 24.6094C31.1595 25.7805 31.0776 26.9675 30.7784 28.1083L32.0177 29.2788L33.2486 28.1083C32.9687 26.9658 32.8884 25.7835 33.0114 24.6136L32.8626 24.201L33.3903 24.455L37.1096 22.9112L36.4668 23.641L36.6436 25.3112L33.9433 26.5743C33.6977 29.0276 34.4542 32.2276 35.0422 34.3567C36.238 32.6851 36.8668 32.2276 38.2169 31.2521C37.8616 28.3509 37.8409 25.4185 38.1552 22.5126C36.5117 22.4242 35.017 21.5007 33.337 20.3133C34.8584 20.6923 36.3447 21.14 37.7945 21.0965C37.1264 18.239 35.6317 16.1842 33.2135 15.6706C33.3637 15.3632 33.5307 15.0558 33.6977 14.7386C36.8134 15.4909 38.2001 18.3751 38.9383 21.54L39.2892 21.5582C38.8583 25.0838 38.8148 28.1546 39.2892 31.7055C36.8808 33.4542 36.3699 34.2318 34.638 36.6472C34.4359 35.9258 34.2338 35.196 34.0317 34.4661Z" fill="#0B1726"/>
<path fill-rule="evenodd" clip-rule="evenodd" d="M32.0178 9.22142C33.935 10.2769 34.7616 11.7477 33.4957 13.9933C33.768 12.3161 33.2052 10.7344 32.0178 9.22142ZM32.0178 17.1877C31.7455 15.7631 31.0859 14.3807 29.9519 13.0291C30.2431 13.0063 30.5359 13.0428 30.8126 13.1364C31.0893 13.23 31.3441 13.3788 31.5617 13.5737C30.822 12.5196 29.6445 11.8768 27.1828 12.4509C27.4368 11.9246 28.2368 11.5989 29.1785 11.3281C27.9294 11.0993 26.453 11.7224 24.5975 13.648C21.8888 16.2333 20.025 15.4333 18.1864 14.5449C20.1386 14.5982 21.2558 14.3077 21.9239 13.8431C19.0832 14.5561 17.0439 13.7561 15.9268 11.1975C18.6271 13.2017 21.2025 11.9624 23.726 9.32388C26.2859 7.17794 28.6859 7.15267 30.9806 8.77932C28.2115 8.2867 26.6551 8.79616 25.8551 9.94001C28.4922 8.83125 30.655 8.73441 31.8241 10.8102C31.8311 10.4066 31.7048 10.012 31.4648 9.68738C31.6585 9.87022 31.8352 10.0703 31.9925 10.2853C32.9596 11.6481 33.1967 13.7323 32.0178 17.1877V17.1877Z" fill="#D84E27"/>
<path d="M5.98633 57.9395H2.48242V60.5645H6.57812V61.748H1V53.2168H6.53711V54.4121H2.48242V56.7676H5.98633V57.9395Z" fill="#FC6011"/>
<path d="M9.81875 55.4082L9.85977 56.1406C10.3285 55.5742 10.9438 55.291 11.7055 55.291C13.0258 55.291 13.6977 56.0469 13.7211 57.5586V61.748H12.2973V57.6406C12.2973 57.2383 12.2094 56.9414 12.0336 56.75C11.8617 56.5547 11.5785 56.457 11.184 56.457C10.6098 56.457 10.182 56.7168 9.90078 57.2363V61.748H8.47695V55.4082H9.81875Z" fill="#FC6011"/>
<path d="M17.8113 53.8672V55.4082H18.9305V56.4629H17.8113V60.002C17.8113 60.2441 17.8582 60.4199 17.952 60.5293C18.0496 60.6348 18.2215 60.6875 18.4676 60.6875C18.6316 60.6875 18.7977 60.668 18.9656 60.6289V61.7305C18.6414 61.8203 18.3289 61.8652 18.0281 61.8652C16.9344 61.8652 16.3875 61.2617 16.3875 60.0547V56.4629H15.3445V55.4082H16.3875V53.8672H17.8113Z" fill="#FC6011"/>
<path d="M23.6652 61.8652C22.7629 61.8652 22.0305 61.582 21.468 61.0156C20.9094 60.4453 20.6301 59.6875 20.6301 58.7422V58.5664C20.6301 57.9336 20.7512 57.3691 20.9934 56.873C21.2395 56.373 21.5832 55.9844 22.0246 55.707C22.466 55.4297 22.9582 55.291 23.5012 55.291C24.3645 55.291 25.0305 55.5664 25.4992 56.1172C25.9719 56.668 26.2082 57.4473 26.2082 58.4551V59.0293H22.0656C22.1086 59.5527 22.2824 59.9668 22.5871 60.2715C22.8957 60.5762 23.2824 60.7285 23.7473 60.7285C24.3996 60.7285 24.9309 60.4648 25.341 59.9375L26.1086 60.6699C25.8547 61.0488 25.5148 61.3438 25.0891 61.5547C24.6672 61.7617 24.1926 61.8652 23.6652 61.8652ZM23.4953 56.4336C23.1047 56.4336 22.7883 56.5703 22.5461 56.8438C22.3078 57.1172 22.1555 57.498 22.0891 57.9863H24.802V57.8809C24.7707 57.4043 24.6437 57.0449 24.4211 56.8027C24.1984 56.5566 23.8898 56.4336 23.4953 56.4336Z" fill="#FC6011"/>
<path d="M31.4879 56.709C31.3004 56.6777 31.107 56.6621 30.9078 56.6621C30.2555 56.6621 29.816 56.9121 29.5895 57.4121V61.748H28.1656V55.4082H29.525L29.5602 56.1172C29.9039 55.5664 30.3805 55.291 30.9898 55.291C31.193 55.291 31.3609 55.3184 31.4937 55.373L31.4879 56.709Z" fill="#FC6011"/>
<path d="M38.7891 58.6426C38.7891 59.623 38.5664 60.4062 38.1211 60.9922C37.6758 61.5742 37.0781 61.8652 36.3281 61.8652C35.6328 61.8652 35.0762 61.6367 34.6582 61.1797V64.1855H33.2344V55.4082H34.5469L34.6055 56.0527C35.0234 55.5449 35.5918 55.291 36.3105 55.291C37.084 55.291 37.6895 55.5801 38.127 56.1582C38.5684 56.7324 38.7891 57.5312 38.7891 58.5547V58.6426ZM37.3711 58.5195C37.3711 57.8867 37.2441 57.3848 36.9902 57.0137C36.7402 56.6426 36.3809 56.457 35.9121 56.457C35.3301 56.457 34.9121 56.6973 34.6582 57.1777V59.9902C34.916 60.4824 35.3379 60.7285 35.9238 60.7285C36.377 60.7285 36.7305 60.5469 36.9844 60.1836C37.2422 59.8164 37.3711 59.2617 37.3711 58.5195Z" fill="#FC6011"/>
<path d="M44.1684 56.709C43.9809 56.6777 43.7875 56.6621 43.5883 56.6621C42.9359 56.6621 42.4965 56.9121 42.2699 57.4121V61.748H40.8461V55.4082H42.2055L42.2406 56.1172C42.5844 55.5664 43.0609 55.291 43.6703 55.291C43.8734 55.291 44.0414 55.3184 44.1742 55.373L44.1684 56.709Z" fill="#FC6011"/>
<path d="M47.4324 61.748H46.0086V55.4082H47.4324V61.748ZM45.9207 53.7617C45.9207 53.543 45.9891 53.3613 46.1258 53.2168C46.2664 53.0723 46.4656 53 46.7234 53C46.9813 53 47.1805 53.0723 47.3211 53.2168C47.4617 53.3613 47.532 53.543 47.532 53.7617C47.532 53.9766 47.4617 54.1562 47.3211 54.3008C47.1805 54.4414 46.9813 54.5117 46.7234 54.5117C46.4656 54.5117 46.2664 54.4414 46.1258 54.3008C45.9891 54.1562 45.9207 53.9766 45.9207 53.7617Z" fill="#FC6011"/>
<path d="M53.3918 60.0254C53.3918 59.7715 53.2863 59.5781 53.0754 59.4453C52.8684 59.3125 52.5227 59.1953 52.0383 59.0938C51.5539 58.9922 51.1496 58.8633 50.8254 58.707C50.1145 58.3633 49.759 57.8652 49.759 57.2129C49.759 56.666 49.9895 56.209 50.4504 55.8418C50.9113 55.4746 51.4973 55.291 52.2082 55.291C52.966 55.291 53.5773 55.4785 54.0422 55.8535C54.5109 56.2285 54.7453 56.7148 54.7453 57.3125H53.3215C53.3215 57.0391 53.2199 56.8125 53.0168 56.6328C52.8137 56.4492 52.5441 56.3574 52.2082 56.3574C51.8957 56.3574 51.6398 56.4297 51.4406 56.5742C51.2453 56.7188 51.1477 56.9121 51.1477 57.1543C51.1477 57.373 51.2395 57.543 51.423 57.6641C51.6066 57.7852 51.9777 57.9082 52.5363 58.0332C53.0949 58.1543 53.5324 58.3008 53.8488 58.4727C54.1691 58.6406 54.4055 58.8438 54.5578 59.082C54.7141 59.3203 54.7922 59.6094 54.7922 59.9492C54.7922 60.5195 54.5559 60.9824 54.0832 61.3379C53.6105 61.6895 52.9914 61.8652 52.2258 61.8652C51.7062 61.8652 51.2434 61.7715 50.8371 61.584C50.4309 61.3965 50.1145 61.1387 49.8879 60.8105C49.6613 60.4824 49.548 60.1289 49.548 59.75H50.9309C50.9504 60.0859 51.0773 60.3457 51.3117 60.5293C51.5461 60.709 51.8566 60.7988 52.2434 60.7988C52.6184 60.7988 52.9035 60.7285 53.0988 60.5879C53.2941 60.4434 53.3918 60.2559 53.3918 60.0254Z" fill="#FC6011"/>
<path d="M59.6793 61.8652C58.777 61.8652 58.0445 61.582 57.482 61.0156C56.9234 60.4453 56.6441 59.6875 56.6441 58.7422V58.5664C56.6441 57.9336 56.7652 57.3691 57.0074 56.873C57.2535 56.373 57.5973 55.9844 58.0387 55.707C58.4801 55.4297 58.9723 55.291 59.5152 55.291C60.3785 55.291 61.0445 55.5664 61.5133 56.1172C61.9859 56.668 62.2223 57.4473 62.2223 58.4551V59.0293H58.0797C58.1227 59.5527 58.2965 59.9668 58.6012 60.2715C58.9098 60.5762 59.2965 60.7285 59.7613 60.7285C60.4137 60.7285 60.9449 60.4648 61.3551 59.9375L62.1227 60.6699C61.8688 61.0488 61.5289 61.3438 61.1031 61.5547C60.6813 61.7617 60.2066 61.8652 59.6793 61.8652ZM59.5094 56.4336C59.1188 56.4336 58.8023 56.5703 58.5602 56.8438C58.3219 57.1172 58.1695 57.498 58.1031 57.9863H60.816V57.8809C60.7848 57.4043 60.6578 57.0449 60.4352 56.8027C60.2125 56.5566 59.9039 56.4336 59.5094 56.4336Z" fill="#FC6011"/>
</g>
<defs>
<clipPath id="clip0">
<rect width="64" height="64" fill="white"/>
</clipPath>
</defs>
</svg>

<svg xmlns="http://www.w3.org/2000/svg" xmlns:xlink="http://www.w3.org/1999/xlink" width="64" height="64" fill="none" xmlns:v="https://vecta.io/nano"><g clip-path="url(#A)"><path d="M30.112.318L13.841 8.155c-.436.209-.819.514-1.12.892s-.514.819-.622 1.29L8.081 27.946c-.108.471-.108.961-.001 1.432s.32.912.621 1.29l11.26 14.119A3.22 3.22 0 0 0 22.478 46h18.06a3.22 3.22 0 0 0 1.397-.319c.436-.21.818-.515 1.12-.894l11.26-14.119a3.23 3.23 0 0 0 .622-2.723l-4.018-17.608a3.22 3.22 0 0 0-1.742-2.182L32.905.318A3.23 3.23 0 0 0 31.508 0a3.23 3.23 0 0 0-1.396.318h0z" fill="#dbe1ee"/><g fill-rule="evenodd"><path d="M19.471 17.795l2.357 15.438c.255 1.697 1.544 3.113 2.682 4.396 1.917 2.181 4.484 3.694 7.123 5.162a.7.7 0 0 0 .782-.008c2.62-1.486 5.193-2.981 7.114-5.154 1.134-1.283 2.417-2.699 2.681-4.396l2.356-15.438a58.05 58.05 0 0 0-7.843-1.197 8.24 8.24 0 0 1 1.056 1.61l5.09.765-2.145 14.042c-.202 1.311-1.469 2.655-2.331 3.632-1.724 1.952-4.115 3.358-6.383 4.632-2.268-1.263-4.651-2.681-6.375-4.632-.853-.982-2.119-2.321-2.321-3.632l-2.146-14.042 5.082-.765c.288-.578.645-1.119 1.065-1.61a57.62 57.62 0 0 0-7.844 1.197h0z" fill="#3cad5c"/><path d="M34.032 34.466a7.93 7.93 0 0 1-4.036.009l-.606 2.173c-1.723-2.41-2.246-3.193-4.651-4.942.483-3.544.431-6.622.008-10.147l.342-.018c.756-3.228 2.181-6.163 5.426-6.849a9.91 9.91 0 0 1 .484.95c-2.526.431-4.08 2.526-4.772 5.451 1.451.043 2.936-.404 4.458-.783-1.684 1.187-3.173 2.105-4.818 2.199a38.56 38.56 0 0 1-.053 8.74c1.338.983 1.965 1.433 3.166 3.105.598-2.129 1.345-5.333 1.099-7.782l-2.699-1.263.175-1.67-.633-.73 3.711 1.544.528-.254-.14.413a9.4 9.4 0 0 1-.241 3.499l1.239 1.171 1.231-1.171c-.28-1.142-.36-2.325-.237-3.495l-.149-.413.528.254 3.719-1.544-.643.73.177 1.67-2.7 1.263c-.246 2.453.511 5.653 1.099 7.782 1.196-1.672 1.825-2.129 3.175-3.105a38.15 38.15 0 0 1-.062-8.739c-1.644-.088-3.138-1.012-4.818-2.199 1.521.379 3.008.827 4.457.783-.668-2.857-2.163-4.912-4.581-5.426.15-.307.317-.615.484-.932 3.116.752 4.502 3.637 5.241 6.801l.351.018c-.431 3.526-.474 6.596 0 10.147-2.408 1.749-2.919 2.526-4.651 4.942l-.606-2.181z" fill="#0b1726"/><path d="M32.018 9.221c1.917 1.055 2.744 2.526 1.478 4.772.272-1.677-.291-3.259-1.478-4.772zm0 7.966c-.272-1.425-.932-2.807-2.066-4.159a2.16 2.16 0 0 1 1.61.545c-.74-1.054-1.917-1.697-4.379-1.123.254-.526 1.054-.852 1.996-1.123-1.249-.229-2.726.394-4.581 2.32-2.709 2.585-4.573 1.785-6.411.897 1.952.053 3.069-.237 3.738-.702-2.841.713-4.88-.087-5.997-2.646 2.7 2.004 5.276.765 7.799-1.874 2.56-2.146 4.96-2.171 7.255-.545-2.769-.493-4.325.017-5.125 1.161 2.637-1.109 4.8-1.206 5.969.87.007-.404-.119-.798-.359-1.123.194.183.37.383.528.598.967 1.363 1.204 3.447.025 6.902h0z" fill="#d84e27"/></g><g fill="#fc6011"><path d="M5.986 57.94H2.482v2.625h4.096v1.183H1v-8.531h5.537v1.195H2.482v2.355h3.504v1.172zm3.833-2.532l.041.732c.469-.566 1.084-.85 1.846-.85 1.32 0 1.992.756 2.016 2.268v4.189h-1.424V57.64c0-.402-.088-.699-.264-.891s-.455-.293-.85-.293c-.574 0-1.002.26-1.283.779v4.512H8.477v-6.34h1.342zm7.992-1.541v1.541h1.119v1.055h-1.119v3.539c0 .242.047.418.141.527s.269.158.516.158a2.19 2.19 0 0 0 .498-.059v1.102a3.5 3.5 0 0 1-.937.135c-1.094 0-1.641-.604-1.641-1.811v-3.592h-1.043v-1.055h1.043v-1.541h1.424zm5.854 7.998c-.902 0-1.635-.283-2.197-.85s-.838-1.328-.838-2.273v-.176c0-.633.121-1.197.363-1.693a2.8 2.8 0 0 1 1.031-1.166 2.72 2.72 0 0 1 1.477-.416c.863 0 1.529.275 1.998.826s.709 1.33.709 2.338v.574h-4.143c.043.523.217.938.521 1.242s.695.457 1.16.457c.652 0 1.184-.264 1.594-.791l.768.732a2.58 2.58 0 0 1-1.02.885 3.19 3.19 0 0 1-1.424.311zm-.17-5.432c-.391 0-.707.137-.949.41s-.391.654-.457 1.142h2.713v-.105c-.031-.477-.158-.836-.381-1.078s-.531-.369-.926-.369z"/><use xlink:href="#B"/><path d="M38.789 58.643c0 .98-.223 1.764-.668 2.35a2.14 2.14 0 0 1-1.793.873c-.695 0-1.252-.229-1.67-.686v3.006h-1.424v-8.777h1.313l.059.645c.418-.508.986-.762 1.705-.762.774 0 1.379.289 1.817.867s.662 1.373.662 2.396v.088zm-1.418-.123c0-.633-.127-1.135-.381-1.506a1.22 1.22 0 0 0-1.078-.557c-.582 0-1 .24-1.254.721v2.813c.258.492.68.738 1.266.738a1.22 1.22 0 0 0 1.061-.545c.258-.367.387-.922.387-1.664zm6.797-1.811a3.52 3.52 0 0 0-.58-.047c-.652 0-1.092.25-1.318.75v4.336h-1.424v-6.34h1.359l.035.709c.344-.551.82-.826 1.43-.826.203 0 .371.027.504.082l-.006 1.336zm3.264 5.039h-1.424v-6.34h1.424v6.34zm-1.512-7.986a.76.76 0 0 1 .205-.545c.141-.145.34-.217.598-.217s.457.072.598.217a.75.75 0 0 1 .211.545.74.74 0 0 1-.211.539c-.141.144-.34.211-.598.211s-.457-.07-.598-.211a.73.73 0 0 1-.205-.539zm7.472 6.263c0-.254-.106-.447-.316-.58s-.553-.25-1.037-.352-.889-.23-1.213-.387c-.711-.344-1.066-.842-1.066-1.494 0-.547.23-1.004.691-1.371s1.047-.551 1.758-.551c.758 0 1.369.188 1.834.563a1.78 1.78 0 0 1 .703 1.459h-1.424a.87.87 0 0 0-.305-.68c-.203-.184-.473-.275-.809-.275-.312 0-.568.072-.768.217s-.293.338-.293.58c0 .219.092.389.275.51s.555.244 1.113.369.996.268 1.313.44.557.371.709.609a1.58 1.58 0 0 1 .234.867c0 .57-.236 1.033-.709 1.389s-1.092.527-1.857.527c-.52 0-.982-.094-1.389-.281s-.723-.445-.949-.774a1.83 1.83 0 0 1-.34-1.06h1.383c.02.336.146.596.381.779s.545.27.932.27c.375 0 .66-.07.855-.211a.67.67 0 0 0 .293-.562zm6.287 1.84c-.902 0-1.635-.283-2.197-.85s-.838-1.328-.838-2.273v-.176c0-.633.121-1.197.363-1.693a2.8 2.8 0 0 1 1.031-1.166 2.72 2.72 0 0 1 1.477-.416c.863 0 1.529.275 1.998.826s.709 1.33.709 2.338v.574H58.08c.043.523.217.938.521 1.242s.695.457 1.16.457c.652 0 1.184-.264 1.594-.791l.768.732a2.58 2.58 0 0 1-1.02.885c-.422.207-.896.311-1.424.311zm-.17-5.432c-.391 0-.707.137-.949.41s-.391.654-.457 1.142h2.713v-.105c-.031-.477-.158-.836-.381-1.078s-.531-.369-.926-.369z"/></g></g><defs><clipPath id="A"><path fill="#fff" d="M0 0h64v64H0z"/></clipPath><path id="B" d="M31.488 56.709a3.52 3.52 0 0 0-.58-.047c-.652 0-1.092.25-1.318.75v4.336h-1.424v-6.34h1.359l.035.709c.344-.551.82-.826 1.43-.826.203 0 .371.027.504.082l-.006 1.336z"/></defs></svg>
